X:4
T:New Polones THO4.004, The
M:2/4
L:1/8
Z:vmp. Peter Dunk 2010/11.from a transcription by Fynn Titford-Mock 2007
B:Thompson's Compleat Collection of 200 Favourite Country Dances Volume IV.
Q:1/4=100
K:A
Ac/A/ {A/}GF/E/|Ac/A/ {A/} GF/E/|ee {d/}cB/A/|BB {A/}GF/E/|\
Ac/A/ {A/}GF/E/|Ac/A/ {A/} GF/E/|A/B/c/d/ e/f/g/a/|e/c/B/c/ A2:|
|:c/d/e/f/ ef/g/|{b/}ag/f/ e2|c/d/f/g/ {f}ed/c/|B/A/B/c/ BE|\
c/d/e/f/ ef/g/|{b/}ag/f/ e2|c/d/f/g/ {f}ed/c/|B/A/B/c/ A2:|
